X:497
T:Border Polka, The
C:Joe Buchanan's Scottish Tome - Page 472.0
I:472 0
C:Lindsay Ross
R:Polka
Z:Carl Allison
L:1/8
M:2/4
K:D
P:A
F/G/ | "D"A^G/A/ B/A/F/A/ | "D7"df fe | "G"dc/d/ e/d/B/d/ | "D"(A2 A>)F |
"Em"G/F/G/A/ B/c/d/B/ | "D"Ad dc/d/ | "E7"e/^d/e/f/ e/B/c/^d/ | "A"ec B_B |
"D"A^G/A/ B/A/F/A/ | "D7"df f>e | "G"dc/d/ e/d/B/d/ | "D"(A2 A>)^A |
"G"B^A/B/ "E7"e/d/c/B/ | "D"A/a/f/d/ A>d | "A7"((3c/d/c/) =c/^c/ fe | "D"d2- d2 :|
P:B
[K:G] D | "G"B2- B/A/G/B/ | "G"d2- d/B/A/G/ | "G"D/G/F/G/ A/G/F/E/ | "Am"GF "D7"FD |
"D7"A2- A/G/A/B/ | "D7"c2- c/B/A/G/ | "D7"F/G/E/F/ D/F/A/d/ | "G"cB BD |
"G"B2- B/A/G/B/ | d2- d/B/A/G/ | "G"D/G/F/G/ "G7"d/B/A/G/ | "C"fe e2 |
"C"e^d/e/ a/g/f/e/ | "G"((3d/e/d/) ^c/d/ "E7"f/e/d/B/ | "A7"c/d/e/c/ "D6"BA | "G"G2- G :|
%%newpage
